!!!!SEGMENT: offering-013c.krn
!!!COM: Bach, Johann Sebastian
!!!CDT: 1685/03/31-1750/07/28
!!!OPR@@DE: Musicalisches Opfer
!!!OPR@EN: Musical Offering
!!!OTL: Trio
!!!OMV: 3
!!!OMD: Adagio
!!!SCA: BWV 1079
!!!voices: 3
**kern	**fb	**kern	**dynam	**kern	**dynam
*part3	*	*part2	*	*part1	*
*staff3	*	*staff2	*	*staff1	*
*I"Continuo	*	*I"Violino	*	*I"Flauto\ntraverso	*
*I'cont.	*	*I'vln.	*	*I'flt.	*
*clefF4	*	*clefG2	*	*clefG2	*
*k[b-e-a-]	*	*k[b-e-a-]	*	*k[b-e-a-]	*
*E-:	*	*E-:	*	*E-:	*
*M4/4	*	*M4/4	*	*M4/4	*
*met(c)	*	*met(c)	*	*met(c)	*
*MM54	*	*MM54	*	*MM54	*
=1	=1	=1	=1	=1	=1
4E-	.	8r	.	8r	.
.	.	(8gL	.	(8b-L	.
4r	.	8a-	.	8cc	.
.	.	[8b-J	.	[8dd-XJ	.
4EE-	7-r 3	8b-L]	.	8dd-L]	.
.	6 4	16a-L)	.	16ccL)	.
.	.	16d-X'JJ	.	16b-'JJ	.
8r	.	(16d-LL	.	(16b-LL	.
.	.	16cJJ)	.	16a-JJ)	.
8EE-	5 3	16r	.	16r	.
.	.	16e-	p	16g	p
=2	=2	=2	=2	=2	=2
4E-	7nr 4 2	(16e-LL	.	(16gLL	.
.	.	16dnJJ)	.	16fJJ)	.
.	.	(8fL	f	(8ddnL	f
4r	.	8g	.	8ee-	.
.	.	[8a-J	.	[8ffJ	.
4EE-	9 4	8a-L]	.	8ffL]	.
.	8 3	16gL)	.	16ee-?L)	.
.	.	16cc'JJ	.	16a-'JJ	.
8r	.	(16ccLL	.	(16a-LL	.
.	.	16b-JJ)	.	16gJJ)	.
8EE-	7 4 2	16r	.	16r	.
.	.	16a-	p	16d	p
=3	=3	=3	=3	=3	=3
8E-	8_ 3	(16a-LL	.	(16dLL	.
.	.	16gJJ)	.	16e-JJ)	.
(8B-L	.	8r	.	8r	.
8c	.	4r	.	4r	.
[8d-XJ	.	.	.	.	.
8d-L])	4nr 2nr	4.een	f	4.g	f
(16cL	.	.	.	.	.
16B-)JJ	_	.	.	.	.
(16B-LL	.	.	.	.	.
16cJ)	.	.	.	.	.
8EnJ	6_ 5	16r	.	16r	.
.	.	16g	.	16b-	.
!!LO:LB:g=original
=4	=4	=4	=4	=4	=4
8FF	.	(16gLL	.	(16b-LL	.
.	.	16fJJ)	.	16a-JJ)	.
(8cL	.	8r	.	8r	.
8d-X	.	4r	.	4r	.
[8e-J	.	.	.	.	.
8e-L])	4nr -	4.an	.	4.gg-X	.
(16d-L	.	.	.	.	.
16c)JJ	.	.	.	.	.
(16cLL	.	.	.	.	.
16d-J)	.	.	.	.	.
8FJ	7 n	16r	.	16r	.
.	.	16aan'	.	16ee-'	.
=5	=5	=5	=5	=5	=5
8GG-XL	5 3	(16aanLL	.	(16ee-LL	.
.	.	16bb-JJ)	.	16dd-XJJ)	.
8G-X	_	16r	.	16r	.
.	.	16dd-X'	p	16b-'	p
8G-	.	(16dd-LL	.	(16b-LL<	.
.	.	16ccJJ)	.	16anJJ)	.
8GG-J	4 2nr	16r	.	16r	.
.	.	16cc'	f	16aan'	f
8FFL	6-r 4	(16ccLL	.	(16aaLL	.
.	.	16dd-JJ)	.	16bb-JJ)	.
8F	.	16r	.	16r	.
.	.	16b-'	p	16dd-X'	p
8F	.	(16b-LL	.	(16dd-LL	.
.	.	16anJJ)	.	16ccJJ)	.
8FFJ	5 n	16r	.	16r	.
.	.	16f'	f	16aan'	f
=	=	=	=	=	=
.	.	(>16qqf/	.	.	.
8EEnL	7-r_ 5	[4dd-X)	.	(16aanLL	.
.	.	.	.	16bb-JJ)	.
8En	.	.	.	16r	.
.	.	.	.	16an'	p
8E	.	(32dd-LLL]	.	(16aLL	.
.	.	32cc	.	.	.
.	.	32b-	.	16b-JJ)	.
.	.	32a-X	.	.	.
8EEJ	6 5	32g	.	16r	.
.	.	32f	.	.	.
!	!	!	!	!	!LO:DY:rj
.	.	64enL	.	16b-	f
.	.	64fJ	.	.	.
.	.	32gJJJ)	.	.	.
.	6 5 -	.	.	(>16qqb-/	.
8EE-L	.	(16cLL	.	[4gg-X)	.
.	.	16b-JJ)	.	.	.
8E-	.	16r	.	.	.
.	.	16bb-'	p	.	.
8E-	.	(16bb-LL	.	(32gg-LLL]	.
.	.	.	.	32ff	.
.	.	16aanJJ)	.	32ee-	.
.	.	.	.	32dd-X	.
8EE-J	4nr 2	16r	.	32cc	.
.	.	.	.	64b-L	.
.	.	.	.	64anJ	.
.	.	16c'	f	32b-	.
.	.	.	.	32ccJJJ)	.
!!LO:LB:g=original
=7	=7	=7	=7	=7	=7
8DD-L	6	(16cLL	.	(16fLL	.
.	.	16B-JJ)	.	16ddnJJ)	.
8GG-	.	16r	.	16r	.
.	.	16d-'	.	16b-'	.
8EE-	6	(16d-LL	.	(16b-LL	.
.	.	16e-JJ)	.	16ccJJ)	.
8FFJ	n	16r	.	16r	.
.	.	16c'	p	16an'	p
4BB-	.	(16cLL	.	(16aLL	.
.	.	16d-JJ)	.	16b-JJ)	.
.	.	(8fL	f	(8ddnL	f
4r	.	8g	.	8ee-	.
.	.	[8a-XJ	.	[8ffJ	.
=8	=8	=8	=8	=8	=8
8EE-L	9 4	8a-L>]	.	8ffL]	.
(8E-	8 3	16gL)	.	16ee-L)	.
.	.	16ff'JJ	.	16dd-X'JJ	.
8F	_	(16ffLL	.	(16dd-LL	.
.	.	16ee-JJ)	.	16ccJJ)	.
8GJ)	6 5-r	16r	.	16r	.
.	.	16dd-X'	p	16b-'	p
4AA-	.	(16dd-LL	.	(16b-LL<	.
.	.	16ccJJ)	.	16a-JJ)	.
.	.	(8a-L>	f	(8ffL	f
4r	.	8b-	.	8gg	.
.	.	[8ccJ	.	[8aa-J	.
=9	=9	=9	=9	=9	=9
8CCL	6 4	8ccL>]	.	8aa-L]	.
(8C	7 5	16b-L)	.	16ggL)	.
.	.	16a-'JJ	.	16ccc'JJ	.
8D	_	(16a-LL	.	(16cccLL	.
.	.	16gJJ)	.	16bb-JJ)	.
8EnJ)	6 5	16r	.	16r	.
.	.	16gg'	p	16b-'	p
8FFL	9 4	(16ggLL	.	(16b-LL<	.
.	.	16ffJJ)	.	16a-JJ)	.
(8F	8 3	16r	.	16r	.
.	.	16cc'	f	16aa-'	f
8G	_	(16ccLL	.	(16aa-LL	.
.	.	16bnJJ)	.	16ggJJ)	.
8A-J)	6	16r	.	16r	.
.	.	16cc	p	16ff	p
!!LO:LB:g=original
=10	=10	=10	=10	=10	=10
(16qqC/	.	.	.	.	.
8BBn)	6 5	8dd	.	8ff	.
16r	.	(8bnL	f	(8dL	f
16A-	4 2nr	.	.	.	.
(16A-LL	5 3	8cc	.	8e-	.
16GJJ)	.	.	.	.	.
16r	.	[8ddJ	.	8fJ	.
16F	6	.	.	.	.
(16FLL	4nr	16ddLL]	.	)16gLL	.
16E-)	6	16g	.	(16cc	.
16A-	4 2nr	16f	.	16bn	.
16FJJ	.	16gJJ)	.	16ccJJ)	.
8GL	6 4	8e-L	.	(16aa-LL	.
.	.	.	.	16gg)	.
8GGJ	5 n	8dtJ	.	(16cc	.
.	.	.	.	16bJJ)	.
=11	=11	=11	=11	=11	=11
8C	.	8c	.	4cc	.
16r	.	(8gL>	.	.	.
16d-X	4 2nr	.	.	.	.
(16d-LL	.	8b-X	.	4r	.
16cJJ)	.	.	.	.	.
16r	.	16ccL	.	.	.
16B-	4nr -	16dd-XJJ)	.	.	.
(16B-LL	.	8en	.	8r	.
16A-JJ)	.	.	.	.	.
8D-XL	5 3	16r	.	(8ff	p
.	.	16aa-'	.	.	.
.	.	.	.	(16qqee-X/	.
8BB-	7 -	(16aa-LL	.	8dd-XL)	.
.	.	16ggJJ)	.	.	.
8CJ	n	16r	.	16ccL	.
.	.	16gg'	p	16b-JJ)	.
=12	=12	=12	=12	=12	=12
4FF	.	(16ggLL	.	8aa-	.
.	.	16ffJJ)	.	.	.
.	.	(8a-L	f	(8ffL	f
4r	.	8b-	.	8gg	.
.	.	[8ccJ	.	[8aa-J	.
4F	8 3	8ccL]	.	8aa-L]	.
.	7nr 2	16b-L)	.	16ggL)	.
.	.	16bb-'JJ	.	16dd-X'JJ	.
8r	.	(16bb-LL	.	(16dd-LL	.
.	.	16aa-JJ)	.	16ccJJ)	.
8FF	.	16r	.	16r	.
.	.	16en'	p	16b-'	.
!!LO:LB:g=original
=13	=13	=13	=13	=13	=13
8FF	8 3	(16enLL	.	(16b-LL	.
.	.	16fJJ)	.	16a-JJ)	.
16r	.	8r	.	(8ccL	f
16G-X	.	.	.	.	.
(16G-LL	4 2nr	4r	.	8ee-	.
16FJJ)	.	.	.	.	.
16r	.	.	.	16ffL	.
16E-	4 -	.	.	16gg-XJJ)	.
(16E-LL	4nr 2	8r	.	8an	.
16D-XJJ)	.	.	.	.	.
8GG-XL	5-r 3	(8b-L	.	16r	.
.	.	.	.	16ddd-X'	.
8EE-	7-r	8g-X	.	(16ddd-LL	.
.	.	.	.	16cccJJ)	.
8FFJ	n	16fL	.	16r	.
.	.	16e-XJJ)	.	16ccc'	p
=14	=14	=14	=14	=14	=14
4BB-	-	8dd-X	.	(16cccLL	.
.	.	.	.	16bb-JJ)	.
.	.	(8d-XL	f	(8b-L	f
4r	.	8e-	.	8cc	.
.	.	[8fJ	.	[8dd-XJ	.
4B-	-	8fL]	.	8dd-L]	.
.	7nr 2	16e-L)	.	16ccL)	.
.	.	16ee-'JJ	.	16g-X'JJ	.
8r	.	(16ee-LL	.	(16g-LL	.
.	.	16dd-JJ)	.	16fJJ)	.
8B-	.	16r	.	16r	.
.	.	16e-	p	16an	p
=15	=15	=15	=15	=15	=15
8BB-	-	(16e-LL	.	(16anLL	.
.	.	16d-XJJ)	.	16b-JJ)	.
16r	.	8r	.	8ff	f
16An	6	.	.	.	.
(16ALL	.	8r	.	(16ffKL	.
16B-JJ)	6-r -	.	.	[8.gg-XJ)	.
16r	.	8dd-X	f	.	.
16BB-	.	.	.	.	.
(16BB-LL	.	[4cc	.	16gg-LL]	.
16AAnJJ)	6	.	.	16ff	.
16r	.	.	.	(16ff	.
16Gn	6nr 4	.	.	16eenJJ)	.
(16GLL	.	(16ccLL]	.	(16eeKL	.
16A-XJJ)	6 -	16cc-X)	.	[8.ffJ)	.
16r	.	(16cc-	.	.	.
16AA-X	.	16b-JJ)	.	.	.
!!LO:LB:g=original
=16	=16	=16	=16	=16	=16
(16AA-LL	.	[4b-	.	16ffLL]	.
16GGJJ)	6	.	.	16ee-X	.
16r	.	.	.	(16ee-	.
16F	6 4	.	.	16ddnJJ)	.
(16FLL	.	16b-LL<]	.	(16ddKL	.
16G-XJJ)	6	16an	.	[8.ee-J)	.
16r	.	(16a	.	.	.
16G-	.	16b-JJ	.	.	.
(16qqBB-/	.	.	.	.	.
8AAnL)	6 5	16ccLL)	.	8.ee-L]	.
.	.	16fJ	.	.	.
8BB-	-	[8b-J	.	.	.
.	.	.	.	16dd-XJk	.
8EE-	7-r	8b-L]	.	(16dd-LL	.
.	.	.	.	16ccJJ)	.
8FFJ	5 -	[8a-XJ	.	16r	.
.	.	.	.	16ee-	p
=17	=17	=17	=17	=17	=17
8BB-L	7 n	8.a-L]	.	(16ee-LL	.
.	.	.	.	16ddnJ)	.
8C	.	.	.	[8ee-J	f
.	.	16gJk	.	.	.
8AA-X	6 5	(16gLL	.	8ee-L]	.
.	.	16fJJ)	.	.	.
8BB-J	-	16r	.	[8dd-XJ	.
.	.	16a-	.	.	.
8E-L	7	(16a-LL	.	8.dd-L]	.
.	.	16gJJ)	.	.	.
8F	.	4a-	.	.	.
.	.	.	.	16ccJk	.
8D-X	6 5	.	.	(16ccLL	.
.	.	.	.	16b-JJ)	.
8E-J	.	8g	p	16r	.
.	.	.	.	16dd-'	p
=18	=18	=18	=18	=18	=18
4AA-	.	8a-	.	(16dd-XLL	.
.	.	.	.	16ccJJ)	.
.	.	(8ccL	f	(8ee-L	f
4r	.	8dd-X	.	8ff	.
.	.	[8ee-J	.	[8gg-XJ	.
4A-	7-r	8ee-L]	.	8gg-L]	.
.	6 4-r	16dd-XL)	.	16ffL)	.
.	.	16g-X'JJ	.	16ee-'JJ	.
8r	.	(16g-LL	.	(16ee-LL	.
.	.	16fJJ)	.	16dd-XJJ)	.
8A-	5 3	16r	.	16r	.
.	.	16a-	p	16cc	p
!!LO:LB:g=original
=19	=19	=19	=19	=19	=19
4AA-	4-r	(16a-LL	.	(16ccLL	.
.	.	16gnJJ)	.	16b-JJ)	.
.	.	(8b-L	f	(8ggnL	f
4r	.	8cc	.	8aa-	.
.	.	[8dd-XJ	.	[8bb-J	.
4A-	6 4-r	8dd-L]	.	8bb-L]	.
.	8 3	16ccL)	.	16aa-L)	.
.	.	16ff'JJ	.	16dd-X'JJ	.
8r	.	(16ffLL	.	(16dd-LL	.
.	.	16ee-JJ)	.	16ccJJ)	.
8A-	7 4-r	16r	.	16r	.
.	.	16dd-	p	16g	p
=20	=20	=20	=20	=20	=20
8AA-	5_ 3	(16dd-XLL	.	(16gLL	.
.	.	16ccJJ)	.	16a-JJ)	.
(8E-L	.	8r	.	8r	.
8F	X	4r	.	4r	.
[8G-XJ	.	.	.	.	.
8G-L]	4 2nr	4.aan	f	4.cc	f
16FL)	.	.	.	.	.
16E-'JJ	.	.	.	.	.
(16E-LL	.	.	.	.	.
16FJ)	.	.	.	.	.
8AAnJ	6 5	16r	.	16r	.
.	.	16e-'	.	16ccc'	.
=21	=21	=21	=21	=21	=21
8BB-	-	(16e-LL	.	(16cccLL	.
.	.	16d-XJJ)	.	16bb-JJ)	.
(8FL	.	8r	.	8r	.
8G-X	.	4r	.	4r	.
[8A-J	.	.	.	.	.
8A-L]	4nr -	4.dd	.	4.ccc-X	.
16G-L)	.	.	.	.	.
16FJJ	.	.	.	.	.
(16FLL	.	.	.	.	.
16G-J)	.	.	.	.	.
8BB-J	7	16r	.	16r	.
.	.	16aa-	.	16ddn	.
!!LO:LB:g=original
=	=	=	=	=	=
8C-XL	5-r 3	(16aa-LL	.	(16ddLL	.
.	.	16gg-XJJ)	.	16ee-JJ)	.
8c-X	.	16r	.	16r	.
.	.	16ee-'	.	16g-X'	.
8c-	.	(16ee-LL	.	(16g-LL	.
.	.	16ddnJJ)	.	16fJJ)	.
8C-J	4nr 2nr	16r	.	16r	.
.	.	16d'	.	16ff'	.
8BB-L	6-r 4	(16dLL	.	(16ffLL	.
.	.	16e-JJ)	.	16gg-XJJ)	.
8B-	.	16r	.	16r	.
.	.	16ee-'	.	16g-X'	.
8B-	.	(16ee-LL	.	(16g-LL	.
.	.	16ddJJ)	.	16fJJ)	.
8BB-J	5 n	16r	.	16r	.
.	.	16f	.	16dd	.
=23	=23	=23	=23	=23	=23
8AAnL	7-r 5	(16fLL	.	(16ddLL	.
.	.	16g-XJJ)	.	16ee-J)	.
8An	.	16r	.	[8gg-XJ	.
.	.	16d	.	.	.
8A	.	(16dLL	.	32gg-LLL]	.
.	.	.	.	(32ff	.
.	.	16e-JJ)	.	32ee-	.
.	.	.	.	32dd-X	.
8AAJ	6 5	16r	.	32cc	.
.	.	.	.	32b-	.
.	.	16e-	.	64anL	.
.	.	.	.	64b-J	.
.	.	.	.	32ccJJJ)	.
.	.	(16qqe-/	.	.	.
8AA-XL	6 5 -	[4cc-X)	.	(16fLL	.
.	.	.	.	16ee-JJ)	.
8A-X	.	.	.	16r	.
.	.	.	.	16eee-'	.
8A-	.	32cc-LLL]	.	(16eee-LL	.
.	.	(32b-	.	.	.
.	.	32a-	.	16dddJJ)	.
.	.	32g-X	.	.	.
8AA-J	4nr	32f	.	16r	.
.	.	64e-L	.	.	.
.	.	64dJ	.	.	.
.	.	32e-	.	16ff'	.
.	.	32fJJJ)	.	.	.
=24	=24	=24	=24	=24	=24
8GGnL	6	(16B-LL	.	(16ffLL	.
.	.	16gnJJ)	.	16ee-JJ)	.
8C	.	16r	.	16r	.
.	.	16g'	.	16ee-'	.
8AA-X	6	(16gLL	.	(16ee-LL	.
.	.	16a-JJ)	.	16ffJJ)	.
8BB-J	7	16r	.	16r	.
.	.	16f'	.	16a-'	.
8EE-L	.	(16fLL	.	(16a-LL	.
.	.	16e-JJ)	.	16gJJ)	.
8AA-	.	16r	.	16r	.
.	.	16e-'	.	16cc'	.
8FF	6	(16e-LL	.	(16ccLL	.
.	.	16fJJ)	.	16ddJJ)	.
8GGJ	7	16r	.	16r	.
.	.	16d'	.	16f'	.
!!LO:LB:g=original
=25	=25	=25	=25	=25	=25
8CCL	.	(16dLL	.	(16fLL	.
.	.	16cJJ)	.	16e-JJ)	.
8F	.	16r	.	16r	.
.	.	16cc'	.	16aa-'	.
8D-X	6	(16ccLL	.	(16aa-LL	.
.	.	16dd-XJJ)	.	16bb-JJ)	.
8E-J	.	16r	.	16r	.
.	.	16b-'	.	16gg'	.
8AA-L	6	(16b-LL	.	(16ggLL	.
.	.	16ccJJ)	.	16aa-JJ)	.
8BB-	6 4	16r	.	16r	.
.	.	16b-'	.	16gg'	.
8C	4 2	(16b-LL<	.	(16ggLL	.
.	.	16a-JJ)	.	16ffJJ)	.
8AA-J	7 5	16r	.	16r	.
.	.	16g'	.	16ee-'	.
=26	=26	=26	=26	=26	=26
8BB-	.	(16gLL	.	(16ee-LL	.
.	.	16fJ)	.	16ddJJ)	.
16r	.	8b-J	.	8r	.
16d	6	.	.	.	.
(16dLL	.	(16b-KL	.	8r	.
16e-JJ)	6-r -	[8.cc-XJ)	.	.	.
16r	.	.	.	8gg-X	.
16E-	.	.	.	.	.
(16E-LL	.	16cc-LL]	.	[4ff	.
16DJJ)	6	16b-	.	.	.
16r	.	(16b-	.	.	.
16c	6nr 4	16anJJ)	.	.	.
(16cLL	.	(16aKL	.	(16ffLL]	.
16d-XJJ)	6 -	[8.b-J)	.	16ff-X)	.
16r	.	.	.	(16ff-	.
16D-X	.	.	.	16ee-JJ)	.
=27	=27	=27	=27	=27	=27
(16D-XLL	.	16b-LL]	.	[4ee-	.
16CJJ)	6	16a-X	.	.	.
16r	.	(16a-	.	.	.
16B-	6 4	16gJJ)	.	.	.
(16B-LL	.	(16gKL	.	16ee-LL]	.
16c-XJJ)	6	[8.a-J)	.	16ddn	.
16r	.	.	.	(16dd	.
16C-X	.	.	.	16ee-JJ)	.
(16C-LL	4 2	8a-L]	.	(16ffnLL	.
16BB-JJ)	.	.	.	16b-JJ)	.
16r	.	8g-XJ	.	4ee-	.
16AAn	7-r 5	.	.	.	.
(16AALL	6 5	8fL	.	.	.
16BB-JJ)	.	.	.	.	.
16r	.	(16b-L	.	8dd	.
16BB-	n	16a-JJ)	.	.	.
!!LO:LB:g=original
=28	=28	=28	=28	=28	=28
4EE-	n	8gn	.	8ee-	.
.	.	(8b-L	.	(8ggL	.
4r	.	8cc	.	8aa-	.
.	.	[8dd-XJ	.	[8bb-J	.
4E-	7-r 	8dd-L]	.	8bb-L]	.
.	6 4	16ccL)	.	16aa-L)	.
.	.	16b-'JJ	.	16dd-X'JJ	.
8r	.	(16b-LL	.	(16dd-LL	.
.	.	16a-JJ)	.	16ccJJ)	.
8E-	5 3	16r	.	16r	.
.	.	16g	p	16ee-	p
=29	=29	=29	=29	=29	=29
4EE-	7 2	(16gLL	.	(16ee-LL	.
.	.	16fJJ)	.	16ddnJJ)	.
.	.	(8ddnL	f	(8fL	f
4r	.	8ee-	.	8g	.
.	.	[8ffJ	.	[8a-J	.
4E-	9 4	8ffL]	.	8a-L]	.
.	8 3	16ee-L)	.	16gL)	.
.	.	16a-'JJ	.	16cc'JJ	.
8r	.	(16a-LL	.	(16ccLL	.
.	.	16gJJ)	.	16b-JJ)	.
8E-	7 2	16r	.	16r	.
.	.	16d	.	16a-'	p
=30	=30	=30	=30	=30	=30
4EE-	8 3	(16dLL	.	(16a-LL	.
.	.	16e-JJ)	.	16gJJ)	.
.	.	8r	.	8r	.
4r	.	4r	.	4r	.
2r	.	2r	.	2r	.
==	==	==	==	==	==
*-	*-	*-	*-	*-	*-
!!!system-decoration: [(s1,s2.s3)]
!!!RDF**kern: > = above
!!!RDF**kern: < = below
!!!URL-pdf: https://s9.imslp.org/files/imglnks/usimg/5/55/IMSLP10042-BWV1079-b.pdf#page=30 @{SMS}
!!!URL-youtube: https://www.youtube.com/watch?v=3QWxjD2qBAc&t=745s Netherlands Bach Society
!!!SMS: Bach-Gesellschaft Ausgabe, Band 31.2 Leipzig: Breitkopf und Härtel, 1885. Plate B.W. XXXI(2).
!!!PED: Alfred Döffel
!!!PED-ODT: 1821-1905
!!!ENC: Craig Stuart Sapp
!!!END: 2024/03/31
!!!EED: Craig Stuart Sapp
!!!EEV: 2024/03/31
!!!title: @{OTL}, @{OMV}. @{OTL} (@{SCA})

